images/5459656.svg

<?xml version="1.0" encoding="UTF-8"?>
<svg xmlns="http://www.w3.org/2000/svg" xmlns:xlink="http://www.w3.org/1999/xlink" width="300pt" height="300pt" viewBox="0 0 300 300" version="1.1">
<defs>
<g>
<symbol overflow="visible" id="glyph0-0">
<path style="stroke:none;" d="M 0.59375 2.125 L 0.59375 -8.46875 L 6.59375 -8.46875 L 6.59375 2.125 Z M 1.265625 1.453125 L 5.9375 1.453125 L 5.9375 -7.78125 L 1.265625 -7.78125 Z M 1.265625 1.453125 "/>
</symbol>
<symbol overflow="visible" id="glyph0-1">
<path style="stroke:none;" d="M 1.171875 -8.75 L 2.765625 -8.75 L 6.65625 -1.4375 L 6.65625 -8.75 L 7.796875 -8.75 L 7.796875 0 L 6.203125 0 L 2.328125 -7.3125 L 2.328125 0 L 1.171875 0 Z M 1.171875 -8.75 "/>
</symbol>
<symbol overflow="visible" id="glyph0-2">
<path style="stroke:none;" d="M 4.734375 -7.953125 C 3.867188 -7.953125 3.179688 -7.628906 2.671875 -6.984375 C 2.171875 -6.347656 1.921875 -5.472656 1.921875 -4.359375 C 1.921875 -3.265625 2.171875 -2.394531 2.671875 -1.75 C 3.179688 -1.113281 3.867188 -0.796875 4.734375 -0.796875 C 5.585938 -0.796875 6.265625 -1.113281 6.765625 -1.75 C 7.273438 -2.394531 7.53125 -3.265625 7.53125 -4.359375 C 7.53125 -5.472656 7.273438 -6.347656 6.765625 -6.984375 C 6.265625 -7.628906 5.585938 -7.953125 4.734375 -7.953125 Z M 4.734375 -8.90625 C 5.953125 -8.90625 6.925781 -8.492188 7.65625 -7.671875 C 8.394531 -6.847656 8.765625 -5.742188 8.765625 -4.359375 C 8.765625 -2.984375 8.394531 -1.882812 7.65625 -1.0625 C 6.925781 -0.238281 5.953125 0.171875 4.734375 0.171875 C 3.503906 0.171875 2.519531 -0.238281 1.78125 -1.0625 C 1.039062 -1.882812 0.671875 -2.984375 0.671875 -4.359375 C 0.671875 -5.742188 1.039062 -6.847656 1.78125 -7.671875 C 2.519531 -8.492188 3.503906 -8.90625 4.734375 -8.90625 Z M 4.734375 -8.90625 "/>
</symbol>
<symbol overflow="visible" id="glyph0-3">
<path style="stroke:none;" d="M 1.171875 -8.75 L 2.359375 -8.75 L 2.359375 -5.15625 L 6.65625 -5.15625 L 6.65625 -8.75 L 7.84375 -8.75 L 7.84375 0 L 6.65625 0 L 6.65625 -4.171875 L 2.359375 -4.171875 L 2.359375 0 L 1.171875 0 Z M 1.171875 -8.75 "/>
</symbol>
</g>
</defs>
<g id="surface44453">
<rect x="0" y="0" width="300" height="300" style="fill:rgb(100%,100%,100%);fill-opacity:1;stroke:none;"/>
<path style="fill:none;stroke-width:1.2;stroke-linecap:butt;stroke-linejoin:miter;stroke:rgb(0%,0%,0%);stroke-opacity:1;stroke-miterlimit:10;" d="M 228.839844 86.214844 L 199.359375 90.074219 "/>
<path style="fill:none;stroke-width:1.2;stroke-linecap:butt;stroke-linejoin:miter;stroke:rgb(0%,0%,0%);stroke-opacity:1;stroke-miterlimit:10;" d="M 199.359375 90.074219 L 181.277344 66.476562 "/>
<path style="fill:none;stroke-width:1.2;stroke-linecap:butt;stroke-linejoin:miter;stroke:rgb(0%,0%,0%);stroke-opacity:1;stroke-miterlimit:10;" d="M 199.359375 90.074219 L 187.964844 117.535156 "/>
<path style="fill:none;stroke-width:1.2;stroke-linecap:butt;stroke-linejoin:miter;stroke:rgb(0%,0%,0%);stroke-opacity:1;stroke-miterlimit:10;" d="M 187.964844 117.535156 L 158.484375 121.394531 "/>
<path style="fill:none;stroke-width:1.2;stroke-linecap:butt;stroke-linejoin:miter;stroke:rgb(0%,0%,0%);stroke-opacity:1;stroke-miterlimit:10;" d="M 158.484375 121.394531 L 157.726562 91.671875 "/>
<path style="fill:none;stroke-width:1.2;stroke-linecap:butt;stroke-linejoin:miter;stroke:rgb(0%,0%,0%);stroke-opacity:1;stroke-miterlimit:10;" d="M 158.484375 121.394531 L 165.40625 150.308594 "/>
<path style="fill:none;stroke-width:1.2;stroke-linecap:butt;stroke-linejoin:miter;stroke:rgb(0%,0%,100%);stroke-opacity:1;stroke-miterlimit:10;" d="M 130.453125 131.300781 L 144.46875 126.347656 "/>
<path style="fill:none;stroke-width:1.2;stroke-linecap:butt;stroke-linejoin:miter;stroke:rgb(0%,0%,0%);stroke-opacity:1;stroke-miterlimit:10;" d="M 144.46875 126.347656 L 158.484375 121.394531 "/>
<path style="fill:none;stroke-width:1.2;stroke-linecap:butt;stroke-linejoin:miter;stroke:rgb(0%,0%,0%);stroke-opacity:1;stroke-miterlimit:10;" d="M 157.726562 91.671875 L 129.226562 83.210938 "/>
<path style="fill:none;stroke-width:1.2;stroke-linecap:butt;stroke-linejoin:miter;stroke:rgb(0%,0%,0%);stroke-opacity:1;stroke-miterlimit:10;" d="M 152.886719 97.53125 L 130.085938 90.761719 "/>
<path style="fill:none;stroke-width:1.2;stroke-linecap:butt;stroke-linejoin:miter;stroke:rgb(0%,0%,0%);stroke-opacity:1;stroke-miterlimit:10;" d="M 129.226562 83.210938 L 112.371094 107.699219 "/>
<path style="fill:none;stroke-width:1.2;stroke-linecap:butt;stroke-linejoin:miter;stroke:rgb(0%,0%,0%);stroke-opacity:1;stroke-miterlimit:10;" d="M 112.371094 107.699219 L 121.414062 119.5 "/>
<path style="fill:none;stroke-width:1.2;stroke-linecap:butt;stroke-linejoin:miter;stroke:rgb(0%,0%,100%);stroke-opacity:1;stroke-miterlimit:10;" d="M 121.414062 119.5 L 130.453125 131.300781 "/>
<path style="fill:none;stroke-width:1.2;stroke-linecap:butt;stroke-linejoin:miter;stroke:rgb(0%,0%,100%);stroke-opacity:1;stroke-miterlimit:10;" d="M 130.453125 131.300781 L 126.222656 145.550781 "/>
<path style="fill:none;stroke-width:1.2;stroke-linecap:butt;stroke-linejoin:miter;stroke:rgb(0%,0%,0%);stroke-opacity:1;stroke-miterlimit:10;" d="M 126.222656 145.550781 L 121.992188 159.800781 "/>
<path style=" stroke:none;fill-rule:nonzero;fill:rgb(100%,100%,100%);fill-opacity:1;" d="M 126.453125 124.300781 L 135.453125 124.300781 L 135.453125 138.300781 L 126.453125 138.300781 Z M 126.453125 124.300781 "/>
<g style="fill:rgb(0%,0%,100%);fill-opacity:1;">
  <use xlink:href="#glyph0-1" x="126.453125" y="135.439453"/>
</g>
<path style="fill:none;stroke-width:1.2;stroke-linecap:butt;stroke-linejoin:miter;stroke:rgb(0%,0%,0%);stroke-opacity:1;stroke-miterlimit:10;" d="M 119.179688 161.878906 L 125.617188 170.59375 "/>
<path style="fill:none;stroke-width:1.2;stroke-linecap:butt;stroke-linejoin:miter;stroke:rgb(100%,0%,0%);stroke-opacity:1;stroke-miterlimit:10;" d="M 125.617188 170.59375 L 132.058594 179.308594 "/>
<path style="fill:none;stroke-width:1.2;stroke-linecap:butt;stroke-linejoin:miter;stroke:rgb(0%,0%,0%);stroke-opacity:1;stroke-miterlimit:10;" d="M 124.804688 157.722656 L 131.242188 166.4375 "/>
<path style="fill:none;stroke-width:1.2;stroke-linecap:butt;stroke-linejoin:miter;stroke:rgb(100%,0%,0%);stroke-opacity:1;stroke-miterlimit:10;" d="M 131.242188 166.4375 L 137.683594 175.152344 "/>
<path style="fill:none;stroke-width:1.2;stroke-linecap:butt;stroke-linejoin:miter;stroke:rgb(0%,0%,0%);stroke-opacity:1;stroke-miterlimit:10;" d="M 121.992188 159.800781 L 93.078125 166.722656 "/>
<path style=" stroke:none;fill-rule:nonzero;fill:rgb(100%,100%,100%);fill-opacity:1;" d="M 129.871094 170.230469 L 139.871094 170.230469 L 139.871094 184.230469 L 129.871094 184.230469 Z M 129.871094 170.230469 "/>
<g style="fill:rgb(100%,0%,0%);fill-opacity:1;">
  <use xlink:href="#glyph0-2" x="129.871094" y="181.369141"/>
</g>
<path style="fill:none;stroke-width:1.2;stroke-linecap:butt;stroke-linejoin:miter;stroke:rgb(0%,0%,0%);stroke-opacity:1;stroke-miterlimit:10;" d="M 93.078125 166.722656 L 84.613281 195.222656 "/>
<path style="fill:none;stroke-width:1.2;stroke-linecap:butt;stroke-linejoin:miter;stroke:rgb(0%,0%,0%);stroke-opacity:1;stroke-miterlimit:10;" d="M 85.523438 167.578125 L 78.753906 190.378906 "/>
<path style="fill:none;stroke-width:1.2;stroke-linecap:butt;stroke-linejoin:miter;stroke:rgb(0%,0%,0%);stroke-opacity:1;stroke-miterlimit:10;" d="M 72.625 145.140625 L 93.078125 166.722656 "/>
<path style="fill:none;stroke-width:1.2;stroke-linecap:butt;stroke-linejoin:miter;stroke:rgb(0%,0%,0%);stroke-opacity:1;stroke-miterlimit:10;" d="M 84.613281 195.222656 L 55.699219 202.140625 "/>
<path style="fill:none;stroke-width:1.2;stroke-linecap:butt;stroke-linejoin:miter;stroke:rgb(0%,0%,0%);stroke-opacity:1;stroke-miterlimit:10;" d="M 55.699219 202.140625 L 35.25 180.5625 "/>
<path style="fill:none;stroke-width:1.2;stroke-linecap:butt;stroke-linejoin:miter;stroke:rgb(0%,0%,0%);stroke-opacity:1;stroke-miterlimit:10;" d="M 58.734375 195.171875 L 42.371094 177.910156 "/>
<path style="fill:none;stroke-width:1.2;stroke-linecap:butt;stroke-linejoin:miter;stroke:rgb(0%,0%,0%);stroke-opacity:1;stroke-miterlimit:10;" d="M 35.25 180.5625 L 43.714844 152.0625 "/>
<path style="fill:none;stroke-width:1.2;stroke-linecap:butt;stroke-linejoin:miter;stroke:rgb(0%,0%,0%);stroke-opacity:1;stroke-miterlimit:10;" d="M 43.714844 152.0625 L 72.625 145.140625 "/>
<path style="fill:none;stroke-width:1.2;stroke-linecap:butt;stroke-linejoin:miter;stroke:rgb(0%,0%,0%);stroke-opacity:1;stroke-miterlimit:10;" d="M 48.234375 158.171875 L 71.363281 152.636719 "/>
<path style="fill:none;stroke-width:1.2;stroke-linecap:butt;stroke-linejoin:miter;stroke:rgb(0%,0%,0%);stroke-opacity:1;stroke-miterlimit:10;" d="M 162.710938 148.082031 L 155.8125 156.4375 "/>
<path style="fill:none;stroke-width:1.2;stroke-linecap:butt;stroke-linejoin:miter;stroke:rgb(100%,0%,0%);stroke-opacity:1;stroke-miterlimit:10;" d="M 155.8125 156.4375 L 148.914062 164.796875 "/>
<path style="fill:none;stroke-width:1.2;stroke-linecap:butt;stroke-linejoin:miter;stroke:rgb(0%,0%,0%);stroke-opacity:1;stroke-miterlimit:10;" d="M 168.105469 152.535156 L 161.207031 160.890625 "/>
<path style="fill:none;stroke-width:1.2;stroke-linecap:butt;stroke-linejoin:miter;stroke:rgb(100%,0%,0%);stroke-opacity:1;stroke-miterlimit:10;" d="M 161.207031 160.890625 L 154.308594 169.25 "/>
<path style="fill:none;stroke-width:1.2;stroke-linecap:butt;stroke-linejoin:miter;stroke:rgb(0%,0%,0%);stroke-opacity:1;stroke-miterlimit:10;" d="M 165.40625 150.308594 L 179.65625 154.539062 "/>
<path style="fill:none;stroke-width:1.2;stroke-linecap:butt;stroke-linejoin:miter;stroke:rgb(0%,0%,100%);stroke-opacity:1;stroke-miterlimit:10;" d="M 179.65625 154.539062 L 193.90625 158.769531 "/>
<path style=" stroke:none;fill-rule:nonzero;fill:rgb(100%,100%,100%);fill-opacity:1;" d="M 141.609375 160.023438 L 151.609375 160.023438 L 151.609375 174.023438 L 141.609375 174.023438 Z M 141.609375 160.023438 "/>
<g style="fill:rgb(100%,0%,0%);fill-opacity:1;">
  <use xlink:href="#glyph0-2" x="141.609375" y="171.162109"/>
</g>
<path style="fill:none;stroke-width:1.2;stroke-linecap:butt;stroke-linejoin:miter;stroke:rgb(0%,0%,100%);stroke-opacity:1;stroke-miterlimit:10;" d="M 193.90625 158.769531 L 197.367188 173.226562 "/>
<path style="fill:none;stroke-width:1.2;stroke-linecap:butt;stroke-linejoin:miter;stroke:rgb(0%,0%,0%);stroke-opacity:1;stroke-miterlimit:10;" d="M 197.367188 173.226562 L 200.828125 187.683594 "/>
<path style=" stroke:none;fill-rule:nonzero;fill:rgb(100%,100%,100%);fill-opacity:1;" d="M 184.90625 151.769531 L 202.90625 151.769531 L 202.90625 165.769531 L 184.90625 165.769531 Z M 184.90625 151.769531 "/>
<g style="fill:rgb(0%,0%,100%);fill-opacity:1;">
  <use xlink:href="#glyph0-1" x="184.90625" y="162.908203"/>
  <use xlink:href="#glyph0-3" x="193.882812" y="162.908203"/>
</g>
<path style="fill:none;stroke-width:1.2;stroke-linecap:butt;stroke-linejoin:miter;stroke:rgb(0%,0%,0%);stroke-opacity:1;stroke-miterlimit:10;" d="M 200.828125 187.683594 L 229.328125 196.148438 "/>
<path style="fill:none;stroke-width:1.2;stroke-linecap:butt;stroke-linejoin:miter;stroke:rgb(0%,0%,0%);stroke-opacity:1;stroke-miterlimit:10;" d="M 229.328125 196.148438 L 232.789062 210.605469 "/>
<path style="fill:none;stroke-width:1.2;stroke-linecap:butt;stroke-linejoin:miter;stroke:rgb(100%,0%,0%);stroke-opacity:1;stroke-miterlimit:10;" d="M 232.789062 210.605469 L 236.25 225.0625 "/>
<path style="fill:none;stroke-width:1.2;stroke-linecap:butt;stroke-linejoin:miter;stroke:rgb(100%,0%,0%);stroke-opacity:1;stroke-miterlimit:10;" d="M 236.25 225.0625 L 250.5 229.292969 "/>
<path style="fill:none;stroke-width:1.2;stroke-linecap:butt;stroke-linejoin:miter;stroke:rgb(0%,0%,0%);stroke-opacity:1;stroke-miterlimit:10;" d="M 250.5 229.292969 L 264.75 233.523438 "/>
<path style=" stroke:none;fill-rule:nonzero;fill:rgb(100%,100%,100%);fill-opacity:1;" d="M 231.25 218.0625 L 241.25 218.0625 L 241.25 232.0625 L 231.25 232.0625 Z M 231.25 218.0625 "/>
<g style="fill:rgb(100%,0%,0%);fill-opacity:1;">
  <use xlink:href="#glyph0-2" x="231.25" y="229.201172"/>
</g>
</g>
</svg>

<svg xmlns="http://www.w3.org/2000/svg" xmlns:xlink="http://www.w3.org/1999/xlink" width="300pt" height="300pt" viewBox="0 0 300 300"><defs><symbol overflow="visible"><path d="M.594 2.125V-8.47h6V2.126zm.672-.672h4.671V-7.78h-4.67zm0 0"/></symbol><symbol overflow="visible" id="a"><path d="M1.172-8.75h1.594l3.89 7.313V-8.75h1.14V0H6.204L2.328-7.313V0H1.172zm0 0"/></symbol><symbol overflow="visible" id="b"><path d="M4.734-7.953c-.867 0-1.554.324-2.062.97-.5.635-.75 1.51-.75 2.624 0 1.094.25 1.965.75 2.61.508.637 1.195.953 2.062.953.852 0 1.532-.316 2.032-.953.507-.645.765-1.516.765-2.61 0-1.113-.257-1.988-.764-2.624-.5-.645-1.18-.97-2.032-.97zm0-.953c1.22 0 2.192.414 2.922 1.234.74.824 1.11 1.93 1.11 3.313 0 1.376-.37 2.477-1.11 3.298C6.926-.24 5.953.17 4.734.17c-1.23 0-2.214-.41-2.953-1.234C1.04-1.882.673-2.984.673-4.36c0-1.382.367-2.488 1.11-3.312.738-.82 1.722-1.234 2.952-1.234zm0 0"/></symbol><symbol overflow="visible" id="c"><path d="M1.172-8.75H2.36v3.594h4.296V-8.75h1.188V0H6.656v-4.172H2.36V0H1.17zm0 0"/></symbol></defs><g><path fill="#fff" d="M0 0h300v300H0z"/><path d="M228.84 86.215l-29.48 3.86M199.36 90.074l-18.083-23.597M199.36 90.074l-11.395 27.46M187.965 117.535l-29.48 3.86M158.484 121.395l-.757-29.723M158.484 121.395l6.922 28.914" stroke-width="1.2" stroke="#000" stroke-miterlimit="10" fill="none"/><path d="M130.453 131.3l14.016-4.952" stroke-width="1.2" stroke="#00f" stroke-miterlimit="10" fill="none"/><path d="M144.47 126.348l14.014-4.953M157.727 91.672l-28.5-8.46M152.887 97.53l-22.8-6.768M129.227 83.21L112.37 107.7M112.37 107.7l9.044 11.8" stroke-width="1.2" stroke="#000" stroke-miterlimit="10" fill="none"/><path d="M121.414 119.5l9.04 11.8M130.453 131.3l-4.23 14.25" stroke-width="1.2" stroke="#00f" stroke-miterlimit="10" fill="none"/><path d="M126.223 145.55l-4.23 14.25" stroke-width="1.2" stroke="#000" stroke-miterlimit="10" fill="none"/><path d="M126.453 124.3h9v14h-9zm0 0" fill="#fff"/><use xlink:href="#a" x="126.453" y="135.439" fill="#00f"/><path d="M119.18 161.88l6.437 8.714" stroke-width="1.2" stroke="#000" stroke-miterlimit="10" fill="none"/><path d="M125.617 170.594l6.442 8.715" stroke-width="1.2" stroke="#f00" stroke-miterlimit="10" fill="none"/><path d="M124.805 157.723l6.437 8.714" stroke-width="1.2" stroke="#000" stroke-miterlimit="10" fill="none"/><path d="M131.242 166.438l6.442 8.714" stroke-width="1.2" stroke="#f00" stroke-miterlimit="10" fill="none"/><path d="M121.992 159.8l-28.914 6.923" stroke-width="1.2" stroke="#000" stroke-miterlimit="10" fill="none"/><path d="M129.87 170.23h10v14h-10zm0 0" fill="#fff"/><use xlink:href="#b" x="129.871" y="181.369" fill="#f00"/><path d="M93.078 166.723l-8.465 28.5M85.523 167.578l-6.77 22.8M72.625 145.14l20.453 21.583M84.613 195.223L55.7 202.14M55.7 202.14l-20.45-21.577M58.734 195.172L42.37 177.91M35.25 180.563l8.465-28.5M43.715 152.063l28.91-6.922M48.234 158.172l23.13-5.535M162.71 148.082l-6.898 8.356" stroke-width="1.2" stroke="#000" stroke-miterlimit="10" fill="none"/><path d="M155.813 156.438l-6.9 8.36" stroke-width="1.2" stroke="#f00" stroke-miterlimit="10" fill="none"/><path d="M168.105 152.535l-6.898 8.356" stroke-width="1.2" stroke="#000" stroke-miterlimit="10" fill="none"/><path d="M161.207 160.89l-6.898 8.36" stroke-width="1.2" stroke="#f00" stroke-miterlimit="10" fill="none"/><path d="M165.406 150.31l14.25 4.23" stroke-width="1.2" stroke="#000" stroke-miterlimit="10" fill="none"/><path d="M179.656 154.54l14.25 4.23" stroke-width="1.2" stroke="#00f" stroke-miterlimit="10" fill="none"/><path d="M141.61 160.023h10v14h-10zm0 0" fill="#fff"/><use xlink:href="#b" x="141.609" y="171.162" fill="#f00"/><path d="M193.906 158.77l3.46 14.457" stroke-width="1.2" stroke="#00f" stroke-miterlimit="10" fill="none"/><path d="M197.367 173.227l3.46 14.457" stroke-width="1.2" stroke="#000" stroke-miterlimit="10" fill="none"/><path d="M184.906 151.77h18v14h-18zm0 0" fill="#fff"/><g fill="#00f"><use xlink:href="#a" x="184.906" y="162.908"/><use xlink:href="#c" x="193.883" y="162.908"/></g><path d="M200.828 187.684l28.5 8.464M229.328 196.148l3.46 14.457" stroke-width="1.2" stroke="#000" stroke-miterlimit="10" fill="none"/><path d="M232.79 210.605l3.46 14.458M236.25 225.063l14.25 4.23" stroke-width="1.2" stroke="#f00" stroke-miterlimit="10" fill="none"/><path d="M250.5 229.293l14.25 4.23" stroke-width="1.2" stroke="#000" stroke-miterlimit="10" fill="none"/><path d="M231.25 218.063h10v14h-10zm0 0" fill="#fff"/><use xlink:href="#b" x="231.25" y="229.201" fill="#f00"/></g></svg>
